src/pos-icons/school-outline.svg

<svg height="24" viewBox="0 0 24 24" width="24" xmlns="http://www.w3.org/2000/svg"><path d="m12 3-11 6 4 2.18v6l7 3.82 7-3.82v-6l2-1.09v6.91h2v-8zm6.82 6-6.82 3.72-6.82-3.72 6.82-3.72zm-1.82 7-5 2.72-5-2.72v-3.73l5 2.73 5-2.73z"/></svg>

<?xml version="1.0" encoding="UTF-8"?><!DOCTYPE svg PUBLIC "-//W3C//DTD SVG 1.1//EN" "http://www.w3.org/Graphics/SVG/1.1/DTD/svg11.dtd"><svg xmlns="http://www.w3.org/2000/svg" xmlns:xlink="http://www.w3.org/1999/xlink" version="1.1" id="mdi-school-outline" width="24" height="24" viewBox="0 0 24 24"><path d="M12 3L1 9L5 11.18V17.18L12 21L19 17.18V11.18L21 10.09V17H23V9L12 3M18.82 9L12 12.72L5.18 9L12 5.28L18.82 9M17 16L12 18.72L7 16V12.27L12 15L17 12.27V16Z" /></svg>
